!!!COM: Palestrina, Giovanni Perluigi da
!!!OPR: Missa O Rex gloriae
!!!OMD: Credo
!!!OTL: Et iterum
**kern	**kern	**kern	**kern
*Ibass	*Itenor	*Icalto	*Icant
!Bassus	!Tenor	!Altus	!Cantus
*clefF4	*clefGv2	*clefG2	*clefG2
*k[b-]	*k[b-]	*k[b-]	*k[b-]
*G:dor	*G:dor	*G:dor	*G:dor
*M4/2	*M4/2	*M4/2	*M4/2
=102	=102	=102	=102
1G	1g	1b-	1dd
2.d	2.f#	2.a	2.dd
4d	4f#	4a	4dd
=103	=103	=103	=103
2d	2f#	2a	2dd
2G	2g	2b-	2dd
2A	2e	2a	2cc
2B-	2d	2g	2b-
=104	=104	=104	=104
2.F	2c	2f	0a
.	2d	2f	.
4G	.	.	.
2.A	2d	2f	.
.	2c	2e	.
4G	.	.	.
=105	=105	=105	=105
4F	2f	1a	2r
4E	.	.	.
2D	1f	.	2dd
1A	.	[1a	2dd
.	2e	.	2cc
=106	=106	=106	=106
0r	1d	2a]	2ff
.	.	2f	1ff
.	1c	2g	.
.	.	2a	2ee
=107	=107	=107	=107
0r	2r	1b-	1dd
.	2d	.	.
.	4f	4a	2cc
.	4e	4g	.
.	4d	4f	2dd
.	4c	4e	.
=108	=108	=108	=108
0r	2.B-	2d	4ff
.	.	.	4ee
.	.	2f	4dd
.	4A	.	4cc
.	2G	2g	2b-
.	2F	2a	2a
=109	=109	=109	=109
1r	2G	2.b-	2g
.	2G	.	2g
.	.	8a	.
.	.	8g	.
2r	2d	2a	2f
[2D	[2d	[2a	[2ff
=110	=110	=110	=110
2D]	2d]	2a]	2ff]
2C#	2e	2a	2ee
1D	1f	1a	1dd
=111	=111	=111	=111
1A	2e	2a	2cc
.	2c	2e	2a
1r	2d	2f	2b-
.	2c	2e	2a
=112	=112	=112	=112
1r	1d	1f	2b-
.	.	.	4a
.	.	.	4b-
1A	1a	1e	4cc
.	.	.	4dd
.	.	.	4ee
.	.	.	4cc
=113	=113	=113	=113
2B-	2.f	2r	4dd
.	.	.	4ee
2A	.	2a	1ff
.	4e	.	.
1B-	1d	2f	.
.	.	2g	4ee
.	.	.	4dd
=114	=114	=114	=114
0A	2e	1a	2cc#
.	2f	.	1dd
.	1e	[1a	.
.	.	.	2cc#
=115	=115	=115	=115
2r	2d	2a]	2dd
2d	2d	2f	2a
2c	2e	2g	2cc
[2B-	[2f	[2b-	[2dd
=116	=116	=116	=116
4B-]	4f]	4b-]	4dd]
4B-	4f	4b-	4dd
2B-	2f	2b-	2dd
1d	1f	1a	1ff
=117	=117	=117	=117
2c	2g	2cc	2ee
1F	1a	1cc	1ff
2G	2g	2b-	2dd
=118	=118	=118	=118
2A	2e	2a	2cc
2D	1f	1a	1dd
1A	.	.	.
.	2e	2a	2cc
=119	=119	=119	=119
2B-	2d	2f	2b-
2F	1c	2f	2a
1G	.	1d	1g
.	2B	.	.
=120	=120	=120	=120
0C	1c	1e	1g
.	2r	2r	2r
.	2e	2g	2cc
=121	=121	=121	=121
0r	2f	2a	2cc
.	1B-	1b-	1dd
.	2c	2a	2cc
=122	=122	=122	=122
0r	2d	2f	2a
.	2G	2g	2b-
.	2A	2e	2cc
.	[2B-	2d	[2dd
=123	=123	=123	=123
1r	2B-]	1f	2dd]
.	2A	.	2cc
2r	1G	1g	1b-
[2d	.	.	.
=124	=124	=124	=124
2d]	1A	1e	0a
2c#	.	.	.
1d	1f	2r	.
.	.	[2a	.
=125	=125	=125	=125
1B-	1d	2a]	2r
.	.	2g	1dd
1A	2f	1a	.
.	2e	.	2cc#
=126	=126	=126	=126
1B-	4d	1f	1dd
.	4e	.	.
.	4f	.	.
.	4d	.	.
1G	2e	1g	1b-
.	[2d	.	.
=127	=127	=127	=127
1A	2d]	2.e	1a
.	2c	.	.
.	.	4f	.
1r	1B-	4g	1b-
.	.	4f	.
.	.	[2f	.
=128	=128	=128	=128
1r	1c	2f]	1g
.	.	2e	.
2r	2r	2f	2a
[2F	[2f	[2a	[2cc
=129	=129	=129	=129
2F]	2f]	2a]	2cc]
2F	2f	2a	2cc
2D	2f	2a	2dd
2D	2f	2a	2dd
=130	=130	=130	=130
0d	2.a	2.f	0ff
.	4g	4g	.
.	1f	2a	.
.	.	2b	.
=131	=131	=131	=131
1c	1g	1cc	1ee
2r	2r	2r	2r
2F	2f	2a	2cc
=132	=132	=132	=132
2F	2f	2a	2cc
2F	2f	2a	2cc
2D	2f	2a	2dd
2D	2f	2a	2dd
=133	=133	=133	=133
0d	2.a	2.f	0ff
.	4g	4g	.
.	1f	2a	.
.	.	2b	.
=134	=134	=134	=134
2c	2g	2cc	2ee
1F	1a	1cc	1ff
2C	2g	2cc	2ee
=135	=135	=135	=135
2D	2f	2a	2dd
2A	2e	2a	2cc
1D	1f	2a	1dd
.	.	[2b-	.
=136	=136	=136	=136
1F	1f	2b-]	1.cc
.	.	1a	.
1G	1d	.	.
.	.	[2g	2b-
=137	=137	=137	=137
1D	1d	2g]	1a
.	.	2f#	.
1G	2d	2g	1b-
.	2d	2g	.
=138	=138	=138	=138
0r	2d	2f	[0a
.	2c	2e	.
.	1f	2.d	.
.	.	4e	.
=139	=139	=139	=139
2r	2d	4f	0a]
.	.	4g	.
2d	2f	2a	.
2d	2.e	2A	.
2c	.	2a	.
.	4e	.	.
=140	=140	=140	=140
1B-	0d	2g	1r
.	.	2f	.
2G	.	4g	2r
.	.	4f	.
2B-	.	4e	2dd
.	.	4d	.
=141	=141	=141	=141
2A	0r	2e	2dd
2A	.	2a	2cc
[1D	.	2a	2.ff
.	.	2f	.
.	.	.	4ff
=142	=142	=142	=142
1D]	2r	2b-	2dd
.	2d	4a	2ff
.	.	4g	.
1r	2d	2a	2ee
.	2c	2a	2ee
=143	=143	=143	=143
1r	2.f	2d	2dd
.	.	2d	2a
.	4f	.	.
2r	2d	2f	2.a
2D	[2f	2d	.
.	.	.	4g
=144	=144	=144	=144
2D	2f]	2f	4a
.	.	.	4b-
2C	4e	2g	2.cc
.	4d	.	.
2.F	1c	2a	.
.	.	.	4b-
.	.	[2f	4a
4F	.	.	4g
=145	=145	=145	=145
2D	2d	4f]	2f
.	.	4e	.
2E-	2G	2c	1g
2D	1A	2d	.
2D	.	2d	2f#
=146	=146	=146	=146
0G	2r	2B-	1g
.	2G	2b-	.
.	2.g	2.b-	2r
.	.	.	2dd
.	4g	4b-	.
=147	=147	=147	=147
0r	2f	2a	2.dd
.	2d	2f	.
.	.	.	4dd
.	2e	2g	2cc
.	2f	2f	2a
=148	=148	=148	=148
1r	1g	1e-	2b-
.	.	.	2cc
2r	2f	1d	1dd
[2d	[2f	.	.
=149	=149	=149	=149
2d]	2f]	2r	1a
2d	2f	1a	.
2c	2e	.	1r
2A	2c	2a	.
=150	=150	=150	=150
2B-	2d	2g	1r
2c	2A	2e	.
2.d	2a	[1f	2r
.	2a	.	[2dd
4c	.	.	.
=151	=151	=151	=151
1B-	1d	2f]	2dd]
.	.	2g	2dd
1A	1e	2.a	2cc
.	.	.	2a
.	.	8g	.
.	.	8f	.
=152	=152	=152	=152
0r	1r	2g	2b-
.	.	2a	2cc
.	2r	2.b-	2.dd
.	[2G	.	.
.	.	4a	4cc
=153	=153	=153	=153
1r	4G]	1g	1b-
.	4A	.	.
.	4B-	.	.
.	4c	.	.
2r	1d	2f	2a
[2G	.	[2b-	[2dd
=154	=154	=154	=154
2G]	1g	2b-]	2dd]
2G	.	2b-	2dd
1B-	[1f	1b-	1dd
=155	=155	=155	=155
1c	2f]	2g	1cc
.	2e	1g	.
1r	2.d	.	2r
.	.	2f	[2dd
.	4c	.	.
=156	=156	=156	=156
0r	2B-	2g	2dd]
.	2A	2a	2cc
.	2G	2b-	2dd
.	2G	2g	2ee
=157	=157	=157	=157
0r	2.d	2a	2ff
.	.	2b-	2dd
.	8c	.	.
.	8B-	.	.
.	1A	[1cc	2ee
.	.	.	2ff
=158	=158	=158	=158
2r	1G	2cc]	2gg
1G	.	2b-	4g
.	.	.	4a
.	2.d	2g	4b-
.	.	.	4cc
2F	.	2a	[2dd
.	4f	.	.
=159	=159	=159	=159
2G	1e	2b-	2dd]
2A	.	2a	2cc#
2B-	2.d	2f	1dd
2G	.	2b-	.
.	4e	.	.
=160	=160	=160	=160
2A	2f	2a	0r
2B-	2d	2g	.
2.c	2e	4g	.
.	.	4f	.
.	[2g	4e	.
4B-	.	4d	.
=161	=161	=161	=161
1A	2g]	1c	2r
.	2f	.	2a
[1G	2.g	2d	[1b-
.	.	2d	.
.	8f	.	.
.	8e	.	.
=162	=162	=162	=162
1G]	0d	1g	1b-]
1D	.	1f#	2a
.	.	.	2dd
=163	=163	=163	=163
1E-	1G	2r	2b-
.	.	1g	2cc
1D	1A	.	2.dd
.	.	2f	.
.	.	.	4cc
=164	=164	=164	=164
0r	2G	2d	4b-
.	.	.	4a
.	2c	2.e	2.g
.	2B-	.	.
.	.	4d	4f
.	2B-	[2d	2d
=165	=165	=165	=165
1r	2G	2d]	2e
.	2A	2c#	2e
2r	1B-	1d	2d
2G	.	.	2dd
=166	=166	=166	=166
1d	2r	2r	1ff
.	2d	2a	.
1A	1c#	1a	1ee
=167	=167	=167	=167
2r	1d	2a	1ff
2d	.	2f	.
2B-	2r	2g	2dd
2c	[2g	2g	2ee-
=168	=168	=168	=168
2.d	2g]	2b-	2dd
.	2f	2a	2dd
4c	.	.	.
4B-	2d	1g	4dd
4A	.	.	4cc
[2G	[2e	.	4b-
.	.	.	4a
=169	=169	=169	=169
4G]	4e]	1r	2g
4F	4d	.	.
2D	1d	.	2f
2.E	.	2r	2g
.	2c#	2g	[2gg
4E	.	.	.
=170	=170	=170	=170
2D	1d	2b-	2gg]
2d	.	2a	2ff
2B-	1r	4g	2dd
.	.	4f	.
[2c	.	4e	[2ee
.	.	4d	.
=171	=171	=171	=171
4c]	1g	4c	4ee]
4B-	.	4d	4dd
2G	.	2B-	2.dd
2A	2e	1c	.
.	.	.	4cc
2A	2f	.	[2cc
=172	=172	=172	=172
1G	2.g	1d	2cc]
.	.	.	2b-
.	4f	.	.
2C	4e	2r	2g
.	4d	.	.
[2F	[2c	[2f	[2a
=173	=173	=173	=173
4F]	4c]	4f]	4a]
4G	4B-	4e	4g
2E-	2G	2c	1g
1D	2.A	2d	.
.	.	2d	2f#
.	4A	.	.
=174	=174	=174	=174
2.E-	1G	1B-	2g
.	.	.	2.gg
4D	.	.	.
[1C	2.g	1c	.
.	.	.	4ff
.	.	.	4ee-
.	4f	.	4dd
=175	=175	=175	=175
2C]	2e-	0g	2cc
2G	2d	.	2b
1C	1e-	.	1cc
=176	=176	=176	=176
0G	0d	0g	0b
==	==	==	==
*-	*-	*-	*-
!!!CDT: 1525/^1526/-1594/2/2
!!!OCY: Italia
!!!AGN: Mass (Parody)
!!!AST: renaissance, vocal
!!!ASW: Motet 1563 (Palestrina)
!!!PWK: Masses, Book 12
!!!RNB: Cadence finals: D
!!!YOR: Le Opere Complete, v. 29, p. 30
!!!YOO: Rome, Italy: Fratelli Scalera
!!!END: 1992//
!!!EED: John Miller
!!!YEC: Copyright 2000, John Miller
!!!YEN: United States of America
!!!YEM: Rights to all derivative electronic formats reserved.
!!!YEM: Refer to licensing agreement for further details.
!!!YEM: This file must be accompanied by the licensing agreement.
!!!YEM: A copy of the licensing agreement may be found at http://www.music-cog.ohio-state.edu/HumdrumDatabases/Palestrina/license.txt
!!!EMD: converted to Humdrum by Bret Aarden
